src/icons/toggle-toggled.svg

<svg xmlns="http://www.w3.org/2000/svg" width="512" height="512" viewBox="0 0 512 512">
    <path d="M341.8 135.2H170.3C107.1 135.2 56 186.4 56 249.5c0 63.1 51.1 114.3 114.3 114.3h171.4c63.1 0 114.3-51.1 114.3-114.3 0-63.2-51.1-114.3-114.2-114.3zm0 185.8c-39.5 0-71.5-32-71.5-71.5s32-71.5 71.5-71.5 71.4 32 71.4 71.5-32 71.5-71.4 71.5z"/>
</svg>

<?xml version="1.0" encoding="UTF-8"?>
<svg width="512px" height="512px" viewBox="0 0 512 512" version="1.1" xmlns="http://www.w3.org/2000/svg" xmlns:xlink="http://www.w3.org/1999/xlink">
    <!-- Generator: Sketch 62 (91390) - https://sketch.com -->
    <title>toggle-toggled</title>
    <desc>Created with Sketch.</desc>
    <g id="toggle-toggled" stroke="none" stroke-width="1" fill="none" fill-rule="evenodd">
        <path d="M341.8,135.2 L170.3,135.2 C107.1,135.2 56,186.4 56,249.5 C56,312.6 107.1,363.8 170.3,363.8 L341.7,363.8 C404.8,363.8 456,312.7 456,249.5 C456,186.3 404.9,135.2 341.8,135.2 Z M341.8,321 C302.3,321 270.3,289 270.3,249.5 C270.3,210 302.3,178 341.8,178 C381.3,178 413.2,210 413.2,249.5 C413.2,289 381.2,321 341.8,321 L341.8,321 Z" id="Shape" fill="#000000" fill-rule="nonzero"></path>
    </g>
</svg>
